X: 30742
T: SHANTUSE
C:
%R: reel
B: Elias Howe "The Musician's Companion" Part 3 1844 p.74 #2
S: http://imslp.org/wiki/The_Musician's_Companion_(Howe,_Elias)
Z: 2015 John Chambers <jc:trillian.mit.edu>
N: The 1st ending to the 2nd strain duplicates the pickup; not fixed.
M: 2/4
L: 1/16
K: D
% - - - - - - - - - - - - - - - - - - - - - - - - -
(AG) |\
F2A2 A2(Bc) | dcde d2B2 |\
B2A2B2d2 | edef (e2AG) |\
F2A2 A2(Bc) | d3e f2e2 |\
d2B2 AdBG | F2E2D2 :: (af) |\
f2a2d2f2 | aggg a2gf |
g2b2e2g2 | c'aga b2ag |\
f2a2d2f2 |[1 agfg a2fd |\
A2d2f2d2 | e4 d2(ag) :|\
[2 d3e f2e2 | d2B2 AdBG | F2E2D2 |]
% - - - - - - - - - - - - - - - - - - - - - - - - -
